assets/svg/1F484.svg

<svg xmlns="http://www.w3.org/2000/svg" viewBox="0 0 64 64" enable-background="new 0 0 64 64"><path fill="#d32027" d="m30.985 2.192c0 0 5.833-4.505 7.669-.597 0 0 3.785 3.316 4.435 13.265l.433 21.251-7.241 1.955-14.915-.338-1.621-1.785c0 0-.004-20.15 0-20.572.008-1.181-.539-1.957 1.403-4.252-.0001-.0001 6.286-7.02 9.837-8.927"/><path fill="#f16c6c" d="m22.978 12.943h4.3v25.608h-4.3z"/><path fill="#a81e22" d="m20.446 12.41c0 0-1.133 2.485.944 2.189 0 0 4.88-.508 9.735-2.979.345-.177.693-.362 1.037-.56 3.27-1.695 5.395-4.431 5.923-7.544.115-.615.163-1.228.097-1.763-.125-1.072-.681-1.843-2.066-1.745-4.155.298-.238-.008-.238-.008s-7.925 2.792-15.432 12.41"/><path fill="#d0d2d3" d="m46.5 60.721c0 1.909-2.084 3.457-4.658 3.457h-20.18c-2.572 0-4.658-1.548-4.658-3.457v-25.03c0-1.906 2.086-3.456 4.658-3.456h20.18c2.574 0 4.658 1.549 4.658 3.456v25.03"/><path fill="#bbbbbc" d="m33.28 60.721v-25.03c0-1.906 2.088-3.456 4.662-3.456h-16.289c-2.572-.0001-4.658 1.547-4.658 3.456v25.03c0 1.909 2.086 3.457 4.658 3.457h16.289c-2.574 0-4.662-1.548-4.662-3.457"/><path fill="#e0e0e0" d="m20.831 64.12c.268.033.545.055.827.055h3.472v-31.947h-3.472c-.282 0-.56.019-.827.055v31.837"/></svg>

<?xml version="1.0" encoding="UTF-8" standalone="no"?>
<!-- Generator: Adobe Illustrator 16.0.0, SVG Export Plug-In . SVG Version: 6.00 Build 0)  -->

<svg
   xmlns:dc="http://purl.org/dc/elements/1.1/"
   xmlns:cc="http://creativecommons.org/ns#"
   xmlns:rdf="http://www.w3.org/1999/02/22-rdf-syntax-ns#"
   xmlns:svg="http://www.w3.org/2000/svg"
   xmlns="http://www.w3.org/2000/svg"
   xmlns:sodipodi="http://sodipodi.sourceforge.net/DTD/sodipodi-0.dtd"
   xmlns:inkscape="http://www.inkscape.org/namespaces/inkscape"
   version="1.1"
   id="Layer_1"
   x="0px"
   y="0px"
   width="64px"
   height="64px"
   viewBox="0 0 64 64"
   enable-background="new 0 0 64 64"
   xml:space="preserve"
   inkscape:version="0.48.5 r10040"
   sodipodi:docname="1F484.svg"
   inkscape:export-filename="D:\TESTINGEMOJI\SVGTEST\1F484.png"
   inkscape:export-xdpi="90"
   inkscape:export-ydpi="90"><metadata
   id="metadata4859"><rdf:RDF><cc:Work
       rdf:about=""><dc:format>image/svg+xml</dc:format><dc:type
         rdf:resource="http://purl.org/dc/dcmitype/StillImage" /><dc:title></dc:title></cc:Work></rdf:RDF></metadata><defs
   id="defs4857" /><sodipodi:namedview
   pagecolor="#ffffff"
   bordercolor="#666666"
   borderopacity="1"
   objecttolerance="10"
   gridtolerance="10"
   guidetolerance="10"
   inkscape:pageopacity="0"
   inkscape:pageshadow="2"
   inkscape:window-width="640"
   inkscape:window-height="480"
   id="namedview4855"
   showgrid="false"
   inkscape:zoom="3.6875"
   inkscape:cx="32"
   inkscape:cy="32"
   inkscape:window-x="638"
   inkscape:window-y="390"
   inkscape:window-maximized="0"
   inkscape:current-layer="Layer_1" />
<g
   id="g4841">
	<path
   fill="#D32027"
   d="M30.985,2.192c0,0,5.833-4.505,7.669-0.597c0,0,3.785,3.316,4.435,13.265l0.433,21.251l-7.241,1.955   l-14.915-0.338l-1.621-1.785c0,0-0.004-20.148,0-20.572c0.008-1.181-0.539-1.957,1.403-4.252   C21.147,11.118,27.434,4.097,30.985,2.192z"
   id="path4843" />
	<rect
   x="22.978"
   y="12.943"
   fill="#F16C6C"
   width="4.3"
   height="25.608"
   id="rect4845" />
	<path
   fill="#A81E22"
   d="M20.446,12.41c0,0-1.133,2.485,0.944,2.189c0,0,4.88-0.508,9.735-2.979c0.345-0.177,0.693-0.362,1.037-0.56   c3.27-1.695,5.395-4.431,5.923-7.544c0.115-0.615,0.163-1.228,0.097-1.763c-0.125-1.072-0.681-1.843-2.066-1.745   C31.961,0.306,35.878,0,35.878,0S27.953,2.792,20.446,12.41z"
   id="path4847" />
	<path
   fill="#D0D2D3"
   d="M46.499,60.721c0,1.909-2.084,3.457-4.658,3.457H21.658c-2.572,0-4.658-1.548-4.658-3.457V35.688   c0-1.906,2.086-3.456,4.658-3.456h20.183c2.574,0,4.658,1.549,4.658,3.456V60.721z"
   id="path4849" />
	<path
   fill="#BBBBBC"
   d="M33.285,60.721V35.688c0-1.906,2.088-3.456,4.662-3.456H21.658C19.086,32.231,17,33.779,17,35.688v25.033   c0,1.909,2.086,3.457,4.658,3.457h16.289C35.373,64.178,33.285,62.63,33.285,60.721z"
   id="path4851" />
	<path
   fill="#E0E0E0"
   d="M20.831,64.123c0.268,0.033,0.545,0.055,0.827,0.055h3.472V32.231h-3.472c-0.282,0-0.56,0.019-0.827,0.055   V64.123z"
   id="path4853" />
</g>
</svg>
